X:138
T:La Bergere. VWMLa.138
%%VWML:Anon2-3049-p80-0
F:http://www.vwml.org/record/Anon2/3049/p80
S:Anon. MS, late 18thC, Vaughan Williams Mem. Library
N:These three notes are slurred in the MS, but
N:ABC2win disapproves for some reason..CGP
O:England;Yorkshire
Z:vmp/efdss.Simon Wilson. Reviewed PJH 2008.
M:6/8
L:1/8
Q:3/8=120
K:A
(ABA) A,2c|d2B B,2f|ecA ABA|(G/A/B).A GFE|\
(ABA) A,2c|d2B B,2f|ecA (B/c/d).c|([E3-c3][E3B3]):|
|:"^NB"efe a2e|c2e A2a|fed cBA|(G/A/B).A GFE|\
(ABA) A,2c|d2B B,2f|ecA EGB|A3 A,3:|
T:Feathers. VWMLa.139
R:March
S:Anon. MS, late 18thC, Vaughan Williams Mem. Library
O:England;Yorkshire
Z:vmp/efdss.Simon Wilson. Reviewed PJH 2008.
M:C|
L:1/8
Q:1/2=75
K:Bb
"P"B3c B2G2|F2D2 F2B2|d3e d2c2|d2c2 B4|\
"^F"bbaa ggff|eedd ccBB|AAGG FFEE|DDCC B,4:|
|:"^F"d3e f2B2|"P"(d2c2) (e2d2)|\
"^F"d3e f2B2|"P"(d2c2) (e2d2)|\
g3a b2B2|gaga b2B2|d4 !turn!c4|B4 z4:|
|:"^F"B,CDE FEDC|B,CDE FEDC|B,CDE FGAB|c2=E2 F4|\
"P"B3c B2F2|d2B2 e2c2|f3g f2d2|(cB).c.d B4:|
|:B4 d2B2|e2c2 (ABcA)|B4 c2d2|f3e d2c2|\
B4 d2B2|e2c2 A2B2|1c2d2 c2d2|d4 c4:|2F2B2 d2c2|c4 B4|]
